!!!id: BC013
!!!page: 20-21
!!!COM: Arrangement de Chs-Emile GADBOIS
!!!LYR: Anonymous
!!!PTL@@FR: Les 100 plus belles chansons
!!!OTL@@FR:Le p'tit avocat
!!!PUB:La Bonne Chanson, inc.
!!!YEM: On ne peut reproduire, enregistrer ou diffuser en tout ou en partie le présent ouvrage, sous quelque procédé que ce soit, électronique, mécanique, photographique, sonore, magnétique ou autre, sans avoir obtenu au préalable l'autorisation écrite de l'éditrice.
!!!PDT: 2011
!!!SMA:2012 Bibliothèque nationale du Québec; Biblothèque nationale du Canada
!!!AGN-Laforte: Chanson en laisse (avec refrain), 13:1(7)
!!!AGN-type: Avocats? Mort?
!!!AGN-rime: none; refrain, none
**kern	**text	**text	**text	**text	**text	**text	**text	**text	**text	**text
*clefG2	*	*	*	*	*	*	*	*	*	*
*k[b-]	*	*	*	*	*	*	*	*	*	*
*D:	*	*	*	*	*	*	*	*	*	*
*M2/4	*	*	*	*	*	*	*	*	*	*
*	*v:1	*v:2	*v:3	*v:4	*v:5	*v:6	*v:7	*v:8	*v:9	*v:10
*	*pline:1	*pline:2	*pline:3	*pline:4	*pline:5	*pline:6	*pline:7	*pline:8	*pline:9	*pline:10
!!!OMD:Allegretto Couplet
{{8f	C'é-	Dans	A	Du	Un	Par	A	Un	Dans	Sur
8a	-tait	une	man-	pois-	a-	mal-	l'é-	ser-	la	sa
=1	=1	=1	=1	=1	=1	=1	=1	=1	=1	=1
8f	un	au-	-ger	-son	-rête	-heur,	-glise,	-vice	fosse,	tombe,
8a	p'tit	-berge	il	on	il	il	on	on	on	on
8f	a-	il	de-	lui	a-	en	le	lui	l'dé-	"é-
8a	-vo-	en-	-man-	don-	-va-	cre-	por-	chan-	-po-	-cri-
=2	=2	=2	=2	=2	=2	=2	=2	=2	=2	=2
4cc}	-cat,	-tra,	-da,	-na,	-la	-va,	-ta,	-ta,	-sa,	-va":
*	*rp:ɑ	*rp:ɑ	*rp:ɑ	*rp:ɑ	*rp:ɑ	*rp:ɑ	*rp:ɑ	*rp:ɑ	*rp:ɑ	*rp:ɑ
*	*rf:ɑ	*rf:ɑ	*rf:ɑ	*rf:ɑ	*rf:ɑ	*rf:ɑ	*rf:ɑ	*rf:ɑ	*rf:ɑ	*rf:ɑ
*	*rs:a	*rs:a	*rs:a	*rs:a	*rs:a	*rs:a	*rs:a	*rs:a	*rs:a	*rs:a
*	*italic	*	*	*	*	*	*	*	*	*
*	*refrain	*	*	*	*	*	*	*	*	*
{16b-	Tour-	.	.	.	.	.	.	.	.	.
16b-	ne	.	.	.	.	.	.	.	.	.
16b-	ma	.	.	.	.	.	.	.	.	.
16b-	rou-	.	.	.	.	.	.	.	.	.
!!LO:PB:g=original
=3	=3	=3	=3	=3	=3	=3	=3	=3	=3	=3
8a	-let-	.	.	.	.	.	.	.	.	.
8a	-te,	.	.	.	.	.	.	.	.	.
16g	vi-	.	.	.	.	.	.	.	.	.
16g	-re,	.	.	.	.	.	.	.	.	.
16g	vi-	.	.	.	.	.	.	.	.	.
16g	-re,	.	.	.	.	.	.	.	.	.
=4	=4	=4	=4	=4	=4	=4	=4	=4	=4	=4
8a	vi-	.	.	.	.	.	.	.	.	.
8f}}	-re,	.	.	.	.	.	.	.	.	.
*	*rp:i	*	*	*	*	*	*	*	*	*
*	*rf:iʁ,ə	*	*	*	*	*	*	*	*	*
*	*rs:b	*	*	*	*	*	*	*	*	*
*	*Xitalic	*	*	*	*	*	*	*	*	*
*	*Xrefrain	*	*	*	*	*	*	*	*	*
*	*v:1	*v:2	*v:3	*v:4	*v:5	*v:6	*v:7	*v:8	*v:9	*v:10
*	*bis	*bis	*bis	*bis	*bis	*bis	*bis	*bis	*bis	*bis
{{8f	C'é-	Dans	A	Du	Un	Par	A	Un	Dans	Sur
8a	-tait	une	man-	pois-	a-	mal-	l'é-	ser-	la	sa
=5	=5	=5	=5	=5	=5	=5	=5	=5	=5	=5
8f	un	au-	-ger	-son	-rête	-heur,	-glise,	-vice	fosse,	tombe,
8a	p'tit	-berge	il	on	il	il	on	on	on	on
8f	a-	il	de-	lui	a-	en	le	lui	l'dé-	"é-
8a	-vo-	en-	-man-	don-	-va-	cre-	por-	chan-	-po-	-cri-
!!LO:PB:g=original
=6	=6	=6	=6	=6	=6	=6	=6	=6	=6	=6
4cc}	-cat,	-tra,	-da,	-na,	-la,	-va,	-ta,	-ta,	-sa,	-va":
*	*Xbis	*Xbis	*Xbis	*Xbis	*Xbis	*Xbis	*Xbis	*Xbis	*Xbis	*Xbis
*	*italic	*	*	*	*	*	*	*	*	*
*	*refrain	*	*	*	*	*	*	*	*	*
{16b-	Tour-	.	.	.	.	.	.	.	.	.
16b-	-ne	.	.	.	.	.	.	.	.	.
16b-	ma	.	.	.	.	.	.	.	.	.
16b-	rou-	.	.	.	.	.	.	.	.	.
=7	=7	=7	=7	=7	=7	=7	=7	=7	=7	=7
8a	-lette,	.	.	.	.	.	.	.	.	.
8a	et	.	.	.	.	.	.	.	.	.
8g	vi-	.	.	.	.	.	.	.	.	.
8g	-rons-	.	.	.	.	.	.	.	.	.
=8	=8	=8	=8	=8	=8	=8	=8	=8	=8	=8
4f}}	-la.	.	.	.	.	.	.	.	.	.
*	*rp:ɑ	*	*	*	*	*	*	*	*	*
*	*rf:ɑ	*	*	*	*	*	*	*	*	*
*	*rs:a	*	*	*	*	*	*	*	*	*
!!LO:PB:g=original
=:|:	=:|:	=:|:	=:|:	=:|:	=:|:	=:|:	=:|:	=:|:	=:|:	=:|:
*	*Xrefrain	*	*	*	*	*	*	*	*	*
*	*Xitalic	*	*	*	*	*	*	*	*	*
!!LO:TX:a:B:t=Refrain
*	*refrain	*	*	*	*	*	*	*	*	*
{{8f'	Son	.	.	.	.	.	.	.	.	.
8a'	p'tit	.	.	.	.	.	.	.	.	.
=9	=9	=9	=9	=9	=9	=9	=9	=9	=9	=9
8f'	cha-	.	.	.	.	.	.	.	.	.
8a'	-peau	.	.	.	.	.	.	.	.	.
8f'	sous	.	.	.	.	.	.	.	.	.
8a'	son	.	.	.	.	.	.	.	.	.
=10	=10	=10	=10	=10	=10	=10	=10	=10	=10	=10
4cc}	bras,	.	.	.	.	.	.	.	.	.
*	*rp:ɑ	*	*	*	*	*	*	*	*	*
*	*rf:ɑ	*	*	*	*	*	*	*	*	*
*	*rs:a	*	*	*	*	*	*	*	*	*
{16b-	Tour-	.	.	.	.	.	.	.	.	.
16b-	-ne	.	.	.	.	.	.	.	.	.
16b-	ma	.	.	.	.	.	.	.	.	.
16b-	rou-	.	.	.	.	.	.	.	.	.
!!LO:PB:g=original
=11	=11	=11	=11	=11	=11	=11	=11	=11	=11	=11
8a	-let-	.	.	.	.	.	.	.	.	.
8a	-te,	.	.	.	.	.	.	.	.	.
16g	vi-	.	.	.	.	.	.	.	.	.
16g	-re,	.	.	.	.	.	.	.	.	.
16g	vi-	.	.	.	.	.	.	.	.	.
16g	-re,	.	.	.	.	.	.	.	.	.
=12	=12	=12	=12	=12	=12	=12	=12	=12	=12	=12
8a	vi-	.	.	.	.	.	.	.	.	.
8f}}	-re,	.	.	.	.	.	.	.	.	.
*	*rp:i	*	*	*	*	*	*	*	*	*
*	*rf:iʁ,ə	*	*	*	*	*	*	*	*	*
*	*rs:b	*	*	*	*	*	*	*	*	*
*	*bis	*	*	*	*	*	*	*	*	*
{{8f'	Son	.	.	.	.	.	.	.	.	.
8a'	p'tit	.	.	.	.	.	.	.	.	.
=13	=13	=13	=13	=13	=13	=13	=13	=13	=13	=13
8f'	cha-	.	.	.	.	.	.	.	.	.
8a'	-peau	.	.	.	.	.	.	.	.	.
8f'	sous	.	.	.	.	.	.	.	.	.
8a'	son	.	.	.	.	.	.	.	.	.
!!LO:PB:g=original
=14	=14	=14	=14	=14	=14	=14	=14	=14	=14	=14
4cc}	bras,	.	.	.	.	.	.	.	.	.
*	*Xbis	*	*	*	*	*	*	*	*	*
{16b-	Tour-	.	.	.	.	.	.	.	.	.
16b-	-ne	.	.	.	.	.	.	.	.	.
16b-	ma	.	.	.	.	.	.	.	.	.
16b-	rou-	.	.	.	.	.	.	.	.	.
=15	=15	=15	=15	=15	=15	=15	=15	=15	=15	=15
8a	-lette	.	.	.	.	.	.	.	.	.
8a	et	.	.	.	.	.	.	.	.	.
8g	vi-	.	.	.	.	.	.	.	.	.
8g	-rons-	.	.	.	.	.	.	.	.	.
=16	=16	=16	=16	=16	=16	=16	=16	=16	=16	=16
4f}}	-la!	.	.	.	.	.	.	.	.	.
*	*rp:ɑ	*	*	*	*	*	*	*	*	*
*	*rf:ɑ	*	*	*	*	*	*	*	*	*
*	*rs:a	*	*	*	*	*	*	*	*	*
*	*Xrefrain	*	*	*	*	*	*	*	*	*
!!LO:PB:g=original
=:|	=:|	=:|	=:|	=:|	=:|	=:|	=:|	=:|	=:|	=:|
*k[b-e-a-d-]	*	*	*	*	*	*	*	*	*	*
!!!OMD:Lent et triste
*	*v:11	*	*	*	*	*	*	*	*	*
{{8f	"Ci-	.	.	.	.	.	.	.	.	.
8a-	-gît	.	.	.	.	.	.	.	.	.
=17	=17	=17	=17	=17	=17	=17	=17	=17	=17	=17
8f	le	.	.	.	.	.	.	.	.	.
8a-	p'tit	.	.	.	.	.	.	.	.	.
8f	a-	.	.	.	.	.	.	.	.	.
8a-	-vo-	.	.	.	.	.	.	.	.	.
=18	=18	=18	=18	=18	=18	=18	=18	=18	=18	=18
4cc}	-cat",	.	.	.	.	.	.	.	.	.
*	*rp:ɑ	*	*	*	*	*	*	*	*	*
*	*rf:ɑ	*	*	*	*	*	*	*	*	*
*	*rs:a	*	*	*	*	*	*	*	*	*
{16b-	Tour-	.	.	.	.	.	.	.	.	.
16b-	-ne	.	.	.	.	.	.	.	.	.
16b-	ma	.	.	.	.	.	.	.	.	.
16b-	rou-	.	.	.	.	.	.	.	.	.
!!LO:PB:g=original
=19	=19	=19	=19	=19	=19	=19	=19	=19	=19	=19
8a-	-let-	.	.	.	.	.	.	.	.	.
8a-	-te,	.	.	.	.	.	.	.	.	.
16g	vi-	.	.	.	.	.	.	.	.	.
16g	-re,	.	.	.	.	.	.	.	.	.
16g	vi-	.	.	.	.	.	.	.	.	.
16g	-re,	.	.	.	.	.	.	.	.	.
=20	=20	=20	=20	=20	=20	=20	=20	=20	=20	=20
8a-	vi-	.	.	.	.	.	.	.	.	.
8f}}	-re,	.	.	.	.	.	.	.	.	.
*	*rp:i	*	*	*	*	*	*	*	*	*
*	*rf:iʁ,ə	*	*	*	*	*	*	*	*	*
*	*rs:b	*	*	*	*	*	*	*	*	*
*	*bis	*bis	*bis	*bis	*bis	*bis	*bis	*bis	*bis	*bis
{{8f	"Ci-	.	.	.	.	.	.	.	.	.
8a-	-gît	.	.	.	.	.	.	.	.	.
=21	=21	=21	=21	=21	=21	=21	=21	=21	=21	=21
8f	le	.	.	.	.	.	.	.	.	.
8a-	p'tit	.	.	.	.	.	.	.	.	.
8f	a-	.	.	.	.	.	.	.	.	.
8a-	-vo-	.	.	.	.	.	.	.	.	.
!!LO:PB:g=original
=22	=22	=22	=22	=22	=22	=22	=22	=22	=22	=22
4cc}	-cat",	.	.	.	.	.	.	.	.	.
*	*Xbis	*Xbis	*Xbis	*Xbis	*Xbis	*Xbis	*Xbis	*Xbis	*Xbis	*Xbis
{16b-	Tour-	.	.	.	.	.	.	.	.	.
16b-	-ne	.	.	.	.	.	.	.	.	.
16b-	ma	.	.	.	.	.	.	.	.	.
16b-	rou-	.	.	.	.	.	.	.	.	.
=23	=23	=23	=23	=23	=23	=23	=23	=23	=23	=23
8a-	lette	.	.	.	.	.	.	.	.	.
8a-	et	.	.	.	.	.	.	.	.	.
8g	vi-	.	.	.	.	.	.	.	.	.
8g	-rons-	.	.	.	.	.	.	.	.	.
!!LO:PB:g=original
=24	=24	=24	=24	=24	=24	=24	=24	=24	=24	=24
*k[b-]	*	*	*	*	*	*	*	*	*	*
!!!OMD:Vite et gai
4f}}	-la.	.	.	.	.	.	.	.	.	.
*	*rp:ɑ	*	*	*	*	*	*	*	*	*
*	*rf:ɑ	*	*	*	*	*	*	*	*	*
*	*rs:a	*	*	*	*	*	*	*	*	*
=||	=||	=||	=||	=||	=||	=||	=||	=||	=||	=||
!!LO:TX:a:B:t=Refrain final
*	*refrain	*	*	*	*	*	*	*	*	*
{{8f'	Son	.	.	.	.	.	.	.	.	.
8a'	p'tit	.	.	.	.	.	.	.	.	.
=25	=25	=25	=25	=25	=25	=25	=25	=25	=25	=25
8f'	cha-	.	.	.	.	.	.	.	.	.
8a'	-peau	.	.	.	.	.	.	.	.	.
8f'	sous	.	.	.	.	.	.	.	.	.
8a'	son	.	.	.	.	.	.	.	.	.
=26	=26	=26	=26	=26	=26	=26	=26	=26	=26	=26
4cc}	bras,	.	.	.	.	.	.	.	.	.
*	*rp:ɑ	*	*	*	*	*	*	*	*	*
*	*rf:ɑ	*	*	*	*	*	*	*	*	*
*	*rs:a	*	*	*	*	*	*	*	*	*
{16b-	Tour-	.	.	.	.	.	.	.	.	.
16b-	-ne	.	.	.	.	.	.	.	.	.
16b-	ma	.	.	.	.	.	.	.	.	.
16b-	rou-	.	.	.	.	.	.	.	.	.
!!LO:PB:g=original
=27	=27	=27	=27	=27	=27	=27	=27	=27	=27	=27
8a	-let-	.	.	.	.	.	.	.	.	.
8a	-te,	.	.	.	.	.	.	.	.	.
16g	vi-	.	.	.	.	.	.	.	.	.
16g	-re,	.	.	.	.	.	.	.	.	.
16g	vi-	.	.	.	.	.	.	.	.	.
16g	-re,	.	.	.	.	.	.	.	.	.
=28	=28	=28	=28	=28	=28	=28	=28	=28	=28	=28
8a	vi-	.	.	.	.	.	.	.	.	.
8f}}	-re,	.	.	.	.	.	.	.	.	.
*	*rp:i	*	*	*	*	*	*	*	*	*
*	*rf:iʁ,ə	*	*	*	*	*	*	*	*	*
*	*rs:b	*	*	*	*	*	*	*	*	*
*	*bis	*bis	*bis	*bis	*bis	*bis	*bis	*bis	*bis	*bis
{{8f'	Son	.	.	.	.	.	.	.	.	.
8a'	p'tit	.	.	.	.	.	.	.	.	.
=29	=29	=29	=29	=29	=29	=29	=29	=29	=29	=29
8f'	cha-	.	.	.	.	.	.	.	.	.
8a'	-peau	.	.	.	.	.	.	.	.	.
8f'	sous	.	.	.	.	.	.	.	.	.
8a'	son	.	.	.	.	.	.	.	.	.
!!LO:PB:g=original
=30	=30	=30	=30	=30	=30	=30	=30	=30	=30	=30
4cc}	bras,	.	.	.	.	.	.	.	.	.
*	*Xbis	*Xbis	*Xbis	*Xbis	*Xbis	*Xbis	*Xbis	*Xbis	*Xbis	*Xbis
{16b-	Tour-	.	.	.	.	.	.	.	.	.
16b-	-ne	.	.	.	.	.	.	.	.	.
16b-	ma	.	.	.	.	.	.	.	.	.
16b-	rou-	.	.	.	.	.	.	.	.	.
=31	=31	=31	=31	=31	=31	=31	=31	=31	=31	=31
8a	-lette	.	.	.	.	.	.	.	.	.
8a	et	.	.	.	.	.	.	.	.	.
8g	vi-	.	.	.	.	.	.	.	.	.
8g	-rons-	.	.	.	.	.	.	.	.	.
=32	=32	=32	=32	=32	=32	=32	=32	=32	=32	=32
4f}}	-la!	.	.	.	.	.	.	.	.	.
*	*rp:ɑ	*	*	*	*	*	*	*	*	*
*	*rf:ɑ	*	*	*	*	*	*	*	*	*
*	*rs:a	*	*	*	*	*	*	*	*	*
*	*Xrefrain	*	*	*	*	*	*	*	*	*
!!LO:TX:a:B:t=FIN
==	==	==	==	==	==	==	==	==	==	==
*-	*-	*-	*-	*-	*-	*-	*-	*-	*-	*-
!!!EED: Isaac Howie
!!!EEV: 2025/May/20
